X:382
T: Shiergeyue
N: C1417
O: China, Gansu, Lingxia
S: I, 133]
R: Xiaodiao]
M: 2/4
L: 1/16
K: F
d2d2f2c2 | d8
c2cdf2gf | d2dfdcAz | c2cdAGF2 | G4G2z2
c2cdAGF2 | G4G2z2
G2GAc2c2 | d2d2c2d2 | F2F2GAF2 | D4D2z2
c2cdAGF2 | G4G2z2
G2GAc2c2 | d2d2c2d2 | F2F2GAF2 | D4D2z2

